public/tech_stack_icons/typescript.svg

<svg xmlns="http://www.w3.org/2000/svg" width="512" height="512" fill="none"><path fill="#3178C6" d="M0 0h512v512H0V0Z"/><path fill="#fff" fill-rule="evenodd" d="M334.939 425.424v50.061c8.138 4.172 17.763 7.3 28.875 9.386 11.112 2.086 22.823 3.129 35.135 3.129 11.999 0 23.397-1.147 34.196-3.442 10.799-2.294 20.268-6.075 28.406-11.342 8.138-5.266 14.581-12.15 19.328-20.65 4.747-8.5 7.121-19.007 7.121-31.522 0-9.074-1.356-17.026-4.069-23.857-2.713-6.831-6.625-12.906-11.738-18.225-5.112-5.319-11.242-10.091-18.389-14.315-7.147-4.224-15.207-8.213-24.18-11.967-6.573-2.712-12.468-5.345-17.685-7.9-5.217-2.556-9.651-5.163-13.303-7.822-3.652-2.66-6.469-5.476-8.451-8.448-1.982-2.973-2.974-6.336-2.974-10.091 0-3.441.887-6.544 2.661-9.308 1.774-2.764 4.278-5.136 7.512-7.118 3.235-1.981 7.199-3.52 11.894-4.615 4.696-1.095 9.912-1.642 15.651-1.642 4.173 0 8.581.313 13.224.938 4.643.626 9.312 1.591 14.008 2.894a97.514 97.514 0 0 1 13.694 4.928c4.434 1.982 8.529 4.276 12.285 6.884v-46.776c-7.616-2.92-15.937-5.084-24.962-6.492-9.025-1.408-19.381-2.112-31.066-2.112-11.895 0-23.163 1.278-33.805 3.833s-20.006 6.544-28.093 11.967c-8.086 5.424-14.476 12.333-19.171 20.729-4.695 8.395-7.043 18.433-7.043 30.114 0 14.914 4.304 27.638 12.912 38.172 8.607 10.533 21.675 19.45 39.204 26.751 6.886 2.816 13.303 5.579 19.25 8.291 5.947 2.712 11.086 5.528 15.415 8.448 4.33 2.92 7.747 6.101 10.252 9.543 2.504 3.441 3.756 7.352 3.756 11.733 0 3.233-.783 6.231-2.348 8.995-1.565 2.764-3.939 5.162-7.121 7.196-3.182 2.034-7.147 3.624-11.894 4.771-4.748 1.148-10.303 1.721-16.668 1.721-10.851 0-21.597-1.903-32.24-5.71-10.642-3.806-20.502-9.516-29.579-17.13ZM250.78 302.082H315V261H136v41.082h63.906V485h50.874V302.082Z" clip-rule="evenodd"/></svg>

<svg width="512" height="512" viewBox="0 0 512 512" fill="none" xmlns="http://www.w3.org/2000/svg">
<path d="M0 0H512V512H0V0Z" fill="#3178C6"/>
<path fill-rule="evenodd" clip-rule="evenodd" d="M334.939 425.424V475.485C343.077 479.657 352.702 482.785 363.814 484.871C374.926 486.957 386.637 488 398.949 488C410.948 488 422.346 486.853 433.145 484.558C443.944 482.264 453.413 478.483 461.551 473.216C469.689 467.95 476.132 461.066 480.879 452.566C485.626 444.066 488 433.559 488 421.044C488 411.97 486.644 404.018 483.931 397.187C481.218 390.356 477.306 384.281 472.193 378.962C467.081 373.643 460.951 368.871 453.804 364.647C446.657 360.423 438.597 356.434 429.624 352.68C423.051 349.968 417.156 347.335 411.939 344.78C406.722 342.224 402.288 339.617 398.636 336.958C394.984 334.298 392.167 331.482 390.185 328.51C388.203 325.537 387.211 322.174 387.211 318.419C387.211 314.978 388.098 311.875 389.872 309.111C391.646 306.347 394.15 303.975 397.384 301.993C400.619 300.012 404.583 298.473 409.278 297.378C413.974 296.283 419.19 295.736 424.929 295.736C429.102 295.736 433.51 296.049 438.153 296.674C442.796 297.3 447.465 298.265 452.161 299.568C456.856 300.872 461.42 302.515 465.855 304.496C470.289 306.478 474.384 308.772 478.14 311.38V264.604C470.524 261.684 462.203 259.52 453.178 258.112C444.153 256.704 433.797 256 422.112 256C410.217 256 398.949 257.278 388.307 259.833C377.665 262.388 368.301 266.377 360.214 271.8C352.128 277.224 345.738 284.133 341.043 292.529C336.348 300.924 334 310.962 334 322.643C334 337.557 338.304 350.281 346.912 360.815C355.519 371.348 368.587 380.265 386.116 387.566C393.002 390.382 399.419 393.145 405.366 395.857C411.313 398.569 416.452 401.385 420.781 404.305C425.111 407.225 428.528 410.406 431.033 413.848C433.537 417.289 434.789 421.2 434.789 425.581C434.789 428.814 434.006 431.812 432.441 434.576C430.876 437.34 428.502 439.738 425.32 441.772C422.138 443.806 418.173 445.396 413.426 446.543C408.678 447.691 403.123 448.264 396.758 448.264C385.907 448.264 375.161 446.361 364.518 442.554C353.876 438.748 344.016 433.038 334.939 425.424ZM250.78 302.082H315V261H136V302.082H199.906V485H250.78V302.082Z" fill="white"/>
</svg>
